X:775
M:C|
L:1/8
K:D
|:B|ddfe d2dB|A2Af edef|1 ddfe d2dB|AFAB d2d:|2 afge fdec|
dBAF EDEF||

